!!!OTL: 358d. Waterloo. 1815.
!!!ODT: 1892
!!!ARE: Europa, Mitteleuropa, Deutschland, Hessen, Wetterau
!!!SCT: E0358C
!!!TXL: @@DE
!!!YEM: Copyright 1995, estate of Helmut Schaffrath.
**kern	**text
*ICvox	*
*M4/4	*
*met(c)	*
*k[b-]	*
*F:	*
!LO:TX:a:t=Frisch und muthig.	!
!LO:TX:a:t=Aus der Wetterau 1892.	!
{4c	Bei
=1	=1
4.a	Wa-
8a	-ter-
8g	-loo
8g	ſtand
8a	ei-
8g	-ne
=2	=2
(4f	Ei-
4cc)	.
8a}	-che,
{8a	wo-
8g	-run-
8a	-ter
=3	=3
4.cc	wir
8b-	des
8.a	Nachts
16a	ge-
8.cc	-ra-
16a	-ſtet
=4	=4
2g	han
4r}	.
{8f	Ei,
8a	was
=5	=5
4.cc	hört
8a	ich
8.cc	un-
16a	-ter
8.cc	dem
16ff	Ge-
=6	=6
4dd	-ſträuche?
4dd	.
8r}	.
{8cc	ein'
8b-	Lärm
8a	von
=7	=7
4.g	lau-
8a	-ter
(8.b-L	Kriegs-
16dd	.
8.ccJ)	.
16b-	-ge-
=8	=8
(4b-/	-ſchrei.
4a)	.
4r}	.
{8f	Ei,
8a	was
=9	=9
4.cc	hört
8a	ich
8.cc	un-
16a	-ter
8.cc	dem
16ff	Ge-
=10	=10
4dd	-ſträuche?
4dd	.
8r}	.
{8cc	ein'
8b-	Lärm
8a	von
=11	=11
4.g	lau-
8a	-ter
(8.b-L	Kriegs-
16dd	.
8.ccJ)	.
16b-	-ge-
=12	=12
(4b-/	-ſchrei.
4a)	.
4r}	.
==	==
!!!AGN: historisches Lied, Krieg gegen Napoleon (1815)
!!!ONB: ESAC (Essen Associative Code) Database: ERK1
!!!AMT: simple quadruple
!!!AIN: vox
!!!EED: Helmut Schaffrath
!!!EEV: 1.0
!!!GTL: Historische Lieder
!!!URL-scan:
!!!ENC: Anna Maria Matuszewska
!!!EEV: 2024/09/12
*-	*-
